ufans-frontend-package/public/assets/images/new-home/icon/live-video-theme.svg

<svg width="100" height="52" viewBox="0 0 100 52" fill="none" xmlns="http://www.w3.org/2000/svg">
<g clip-path="url(#clip0_1340_13)">
<path fill-rule="evenodd" clip-rule="evenodd" d="M5.81869 0H71.5169C74.7152 0 77.3356 2.62044 77.3356 5.81869V13.0778L100 4.98047V42.4072L77.3356 34.7575V45.3369C77.3356 48.5352 74.7152 51.1475 71.5169 51.1475H5.81869C2.62044 51.1475 0 48.5352 0 45.3369V5.81869C0 2.62044 2.62044 0 5.81869 0ZM21.3298 13.029V33.1136H25.2604V38.1266H14.7949V13.029H21.3298ZM33.6751 13.029V38.1266H27.1403V13.029H33.6751ZM52.0426 13.029L48.7386 38.1266H38.8591L35.0749 13.029H41.9596C42.7328 19.9463 43.3024 25.8057 43.6605 30.5908C44.0104 25.7487 44.3685 21.46 44.7347 17.7083L45.166 13.029H52.0426V13.029ZM53.4505 13.029H64.3311V18.042H59.9854V22.8353H64.0462V27.596H59.9854V33.1136H64.7786V38.1266H53.4505V13.029Z" fill="#6661E7"/>
</g>
<defs>
<clipPath id="clip0_1340_13">
<rect width="100" height="51.1475" fill="white"/>
</clipPath>
</defs>
</svg>

<svg xmlns="http://www.w3.org/2000/svg" xmlns:xlink="http://www.w3.org/1999/xlink" width="100" height="51.148" viewBox="0 0 100 51.148">
  <defs>
    <clipPath id="clip-path">
      <rect id="Rectangle_1" data-name="Rectangle 1" width="100" height="51.147" fill="#e44499"/>
    </clipPath>
  </defs>
  <g id="live-video-theme" clip-path="url(#clip-path)">
    <path id="Path_1" data-name="Path 1" d="M5.819,0h65.7a5.838,5.838,0,0,1,5.819,5.819v7.259L100,4.98V42.407l-22.664-7.65V45.337a5.831,5.831,0,0,1-5.819,5.811H5.819A5.831,5.831,0,0,1,0,45.337V5.819A5.838,5.838,0,0,1,5.819,0ZM21.33,13.029V33.114H25.26v5.013H14.795v-25.1Zm12.345,0v25.1H27.14v-25.1Zm18.368,0-3.3,25.1h-9.88l-3.784-25.1H41.96q1.16,10.376,1.7,17.562.525-7.263,1.074-12.882l.431-4.679Zm1.408,0H64.331v5.013H59.985v4.793h4.061V27.6H59.985v5.518h4.793v5.013H53.451Z" fill="#e44499" fill-rule="evenodd"/>
  </g>
</svg>
